public/game/repeat.svg

<svg width="58" height="57" viewBox="0 0 58 57" fill="none" xmlns="http://www.w3.org/2000/svg">
<path d="M54.625 25.6931C53.8625 25.6931 53.1312 25.9925 52.5921 26.5254C52.0529 27.0583 51.75 27.7811 51.75 28.5348C51.7842 33.8572 49.9396 39.0249 46.5338 43.1477C43.1279 47.2706 38.3742 50.0905 33.0911 51.1218C27.8081 52.1531 22.3266 51.3313 17.5907 48.7978C12.8548 46.2644 9.16092 42.1779 7.14531 37.2422C5.1297 32.3066 4.91853 26.8307 6.54816 21.7577C8.17779 16.6847 11.5462 12.3321 16.0733 9.44972C20.6003 6.56729 26.0026 5.33541 31.3498 5.96625C36.6969 6.59709 41.654 9.05115 45.3675 12.9058H38.4675C37.705 12.9058 36.9737 13.2052 36.4346 13.7381C35.8954 14.271 35.5925 14.9938 35.5925 15.7474C35.5925 16.5011 35.8954 17.2238 36.4346 17.7567C36.9737 18.2897 37.705 18.589 38.4675 18.589H51.4913C52.2538 18.589 52.985 18.2897 53.5242 17.7567C54.0634 17.2238 54.3663 16.5011 54.3663 15.7474V2.96005C54.3663 2.20641 54.0634 1.48362 53.5242 0.950715C52.985 0.417805 52.2538 0.11842 51.4913 0.11842C50.7288 0.11842 49.9975 0.417805 49.4583 0.950715C48.9192 1.48362 48.6163 2.20641 48.6163 2.96005V7.98975C43.8284 3.46603 37.6072 0.715027 31.0041 0.201762C24.401 -0.311503 17.8211 1.44445 12.3767 5.17281C6.93224 8.90116 2.95726 14.3732 1.12364 20.664C-0.709979 26.9547 -0.289763 33.6783 2.31326 39.6982C4.91628 45.7181 9.54243 50.665 15.4097 53.7027C21.277 56.7404 28.0255 57.6825 34.5145 56.3699C41.0035 55.0573 46.8349 51.5704 51.023 46.4986C55.2111 41.4269 57.4991 35.0814 57.5 28.5348C57.5 27.7811 57.1971 27.0583 56.6579 26.5254C56.1188 25.9925 55.3875 25.6931 54.625 25.6931Z" fill="white"/>
</svg>

<svg width="58" height="57" fill="none" xmlns="http://www.w3.org/2000/svg"><path d="M54.625 25.693c-.763 0-1.494.3-2.033.832a2.825 2.825 0 0 0-.842 2.01 22.71 22.71 0 0 1-5.216 14.613 23.193 23.193 0 0 1-13.443 7.974 23.382 23.382 0 0 1-15.5-2.324A22.968 22.968 0 0 1 7.145 37.242a22.626 22.626 0 0 1-.597-15.484A22.91 22.91 0 0 1 16.073 9.45 23.36 23.36 0 0 1 31.35 5.966a23.243 23.243 0 0 1 14.017 6.94h-6.9c-.762 0-1.493.3-2.032.832a2.825 2.825 0 0 0-.843 2.01c0 .753.303 1.476.843 2.009.539.533 1.27.832 2.032.832h13.024c.763 0 1.494-.3 2.033-.832.54-.533.842-1.256.842-2.01V2.96c0-.754-.303-1.476-.842-2.01a2.892 2.892 0 0 0-2.033-.832c-.762 0-1.493.3-2.033.833a2.825 2.825 0 0 0-.842 2.01v5.029A28.907 28.907 0 0 0 31.004.202a29.002 29.002 0 0 0-18.627 4.97A28.431 28.431 0 0 0 1.124 20.665a28.11 28.11 0 0 0 1.19 19.034A28.548 28.548 0 0 0 15.41 53.703a29.05 29.05 0 0 0 19.104 2.667 28.809 28.809 0 0 0 16.509-9.871A28.213 28.213 0 0 0 57.5 28.535c0-.754-.303-1.477-.842-2.01a2.892 2.892 0 0 0-2.033-.832Z" fill="#fff"/></svg>
